X:88
T:Honey  Bee's Breakdo
R:reel
C:Bruce Osborne - 2003
Z:abc by bosborne@kos.net
M:2/4
L:1/8
K:Dmaj
D/E/|F/A/A/B/ A/F/E/D/|G/F/G/A/ B/d/c/B/|AA/B/ A/F/E/D/|E/G/B/e/ AD/E/|\
F/A/A/B/ A/F/E/D/|G/F/G/A/ B/d/c/B/|AA/B/ A/F/E/D/|E/A,/C/E/ D:|
|:F/G/|A/F/D/F/ E/A,/C/E/|F/D/D/C/ DF/G/|A/d/c/d/ A/F/D/F/|E/A,/A,/G,/ A,F/G/|\
A/F/D/F/ E/A,/C/E/|F/D/D/C/ DF/G/|A/d/c/d/ A/F/D/F/|E/A,/C/E/ D:|
